shared/images/iconfont/31-kb-iconfont-finder-16.svg

<?xml version="1.0" encoding="UTF-8"?>
<svg width="16px" height="16px" viewBox="0 0 16 16" version="1.1" xmlns="http://www.w3.org/2000/svg" xmlns:xlink="http://www.w3.org/1999/xlink">
    <!-- Generator: sketchtool 64 (101010) - https://sketch.com -->
    <title>6026F158-3804-4008-B28B-ED088C4F0D07</title>
    <desc>Created with sketchtool.</desc>
    <g id="Symbols" stroke="none" stroke-width="1" fill="none" fill-rule="evenodd">
        <g id="31-kb-iconfont-finder-16">
            <g>
                <rect id="icon-area" opacity="0" x="0" y="0" width="16" height="16"></rect>
                <path d="M14.4999654,14.9999976 C15.3280885,14.9999976 15.9999619,14.3281242 15.9999619,13.5000012 L15.9999619,2.50003099 C15.9999619,1.67190439 15.3280885,1.00003099 14.4999654,1.00003099 L1.5,1.00003099 C0.671873398,1.00003099 0,1.67190439 0,2.50003099 L0,13.5000012 C0,14.3281242 0.671873398,14.9999976 1.5,14.9999976 L14.4999654,14.9999976 Z M12.9999714,4.50002742 C12.4468392,4.50002742 11.9999714,4.05315482 11.9999714,3.50002742 C11.9999714,2.94689525 12.4468392,2.50002742 12.9999714,2.50002742 C13.5530988,2.50002742 13.9999714,2.94689525 13.9999714,3.50002742 C13.9999714,4.05315482 13.5530988,4.50002742 12.9999714,4.50002742 Z M9.99997854,4.50002742 C9.44684637,4.50002742 8.99997854,4.05315482 8.99997854,3.50002742 C8.99997854,2.94689525 9.44684637,2.50002742 9.99997854,2.50002742 C10.5531059,2.50002742 10.9999785,2.94689525 10.9999785,3.50002742 C10.9999785,4.05315482 10.5531059,4.50002742 9.99997854,4.50002742 Z M6.99998569,4.50002742 C6.44685353,4.50002742 5.99998569,4.05315482 5.99998569,3.50002742 C5.99998569,2.94689525 6.44685353,2.50002742 6.99998569,2.50002742 C7.5531131,2.50002742 7.99998569,2.94689525 7.99998569,3.50002742 C7.99998569,4.05315482 7.5531131,4.50002742 6.99998569,4.50002742 Z M14.3124659,13.5000012 L1.68749598,13.5000012 C1.58437733,13.5000012 1.49999642,13.4156203 1.49999642,13.3125016 L1.49999642,6.00001907 L14.4999654,6.00001907 L14.4999654,13.3125016 C14.4999654,13.4156203 14.4155845,13.5000012 14.3124659,13.5000012 Z" id="" fill="#000000"></path>
            </g>
        </g>
    </g>
</svg>

<svg xmlns="http://www.w3.org/2000/svg" width="16" height="16" viewBox="0 0 16 16">
    <g fill="none" fill-rule="evenodd">
        <path fill="#000" d="M14.5 15c.828 0 1.5-.672 1.5-1.5v-11c0-.828-.672-1.5-1.5-1.5h-13C.672 1 0 1.672 0 2.5v11c0 .828.672 1.5 1.5 1.5h13zM13 4.5c-.553 0-1-.447-1-1 0-.553.447-1 1-1 .553 0 1 .447 1 1 0 .553-.447 1-1 1zm-3 0c-.553 0-1-.447-1-1 0-.553.447-1 1-1 .553 0 1 .447 1 1 0 .553-.447 1-1 1zm-3 0c-.553 0-1-.447-1-1 0-.553.447-1 1-1 .553 0 1 .447 1 1 0 .553-.447 1-1 1zm7.312 9H1.687c-.103 0-.187-.084-.187-.187V6h13v7.313c0 .103-.084.187-.188.187z"/>
    </g>
</svg>
